src/assets/snl_logo.svg

<svg height="468" viewBox="0 0 1438 468" width="1438" xmlns="http://www.w3.org/2000/svg"><g fill="#fff" transform="translate(.009826 .950498)"><path d="m991.560174 324.959502h14.349996v-87.84h36.42v226h-36.12v-97.52c-4.85-1.07-9.219996-.58-14.279996-.38v97.67h-37.32v-225.88h37z"/><path d="m742.830174 333.909502v129h-31.43v-225.79h35.26l19.61 118.67h.76v-118.6h31.8v225.66h-32.45l-22.41-129z"/><path d="m265.110174 2.28950191h36.48c1.15 1.7.57 3.58.57 5.33.04 58.82666669.04 117.65666709 0 176.49000009 0 3 .06 6 1.22 8.83.93273 2.818268 3.767007 4.548447 6.7 4.09 3.38-.37 5.53-2.36 6-5.66.285644-2.990929.379169-5.997099.28-9 0-58.666667 0-117.3333334 0-176.00000009v-4h37.19c1.06 1.12.55 2.52.55 3.78 0 60.82999999.18 121.66000009-.09 182.49000009-.07 14.77-4.2 28.28-17.74 36.84-5.581496 3.675429-12.117047 5.636094-18.8 5.64-8.75-.09-17.51 1-26.23-1.56-14.82-4.27-22.36-14.47-25.09-29-.850462-5.090727-1.222086-10.24994-1.11-15.41.053333-58.993333.053333-117.9933334 0-177.00000009z"/><path d="m461.270174 228.999502v-226.79000009c19.31 0 38.42-.18 57.53.14 4.315266.15745481 8.555303 1.17751179 12.47 3 9.37 4.19 13.82 11.93999999 15.79 21.46999999.891073 5.0789321 1.256336 10.2361766 1.09 15.39-.053334 50.1333333-.053334 100.2666671 0 150.4000001.068891 6.456938-1.165744 12.861396-3.63 18.83-4.87 11.54-14.4 17-26.21 17.4-18.95.63-37.9.16-57.04.16zm35.84-32.15c11.87.59 14-1.39 14-12.62 0-12.486667 0-24.976667 0-37.47 0-34.666667 0-69.3033334 0-103.9100001 0-4.23-.6-8.29-5.33-9.49-2.861672-.6823935-5.848262-.6411518-8.69.12z"/><path d="m943.980174 316.589502h-36.26c0-6.95 0-13.54 0-20.14 0-6 0-12 0-18 .164033-2.505698-.292805-5.013156-1.33-7.3-1.46-2.76-3.81-4.38-6.87-3.91s-4.74 2.87-5.26 5.86c-.169376 1.490358-.212863 2.992339-.13 4.49v143.94 3c.35 4.72 4.14 8.77 8.05 8.63 3.63-.12 7.78-4.21 7.81-8.41.12-21.47.06-42.94.06-64.75l-9.39-.6v-31.76h44.8v135.23h-23.27c-3.1-3.77-1.41-9.61-4.95-13.46-1.85-.08-2.49 1.39-3.37 2.56-9.25 12.4-20.66 16.66-34.8 13-11.05-2.87-20.13-14.62-22-28.22-.669484-5.108732-.983572-10.257772-.94-15.41.033333-48 .033333-95.98 0-143.94-.088291-6.982617 1.13629-13.919648 3.61-20.45 5.11-13.07 15.19-19.77 28.6-21.71 9.27-1.34 18.64-.67 27.93.08 10.36.84 21.86 11.71 25.39 22.87 1.697037 5.553294 2.480578 11.345414 2.32 17.15-.15 12 0 24 0 36z"/><path d="m400.390174 128.769502v100h-36.1v-226.00000009c.92-1.13 2.36-.55 3.6-.55 18.16-.04 36.32-.04 54.48 0 17 0 27.51 10.06999999 27.74 26.92999999.25 18 .17 36 0 54-.09 10.85-4 17.4900001-13.31 23.5600001.43.47.75 1.05 1.25 1.32 9 4.89 12.54 12.63 12.49 22.62-.13 25.32-.05 50.65 0 76 0 7.44-.53 14.94 2.92 22.3h-36.35c-2.92-4-2.85-9.08-2.87-13.94-.11-25 0-50-.06-75-.01-10.78-2.27-12.69-13.79-11.24zm.21-32.6800001c9 1.73 13.35-.45 13.43-7.07.21-16.95.09-33.89.06-50.84 0-3.92-2-6.19-6-6.5-2.44-.19-4.92-.71-7.5.45z"/><path d="m.11017382 139.349502h35.10999998v45c0 2-.09 4 .06 6 .52 6.93 2.88 9 9.78 8.65 3.92-1.61 4.64-5.19 4.69-8.67.1533333-12.326667.1233333-24.66-.09-37-.11-6.41-3-11.83-7.3-16.46-8.69-9.41-17.62-18.59-26.19-28.1-10.17793624-10.9592329-15.6406421-25.4797587-15.20999998-40.4300001.16-9.5.24-19 0-28.5-.71-26.5 13.44999998-38.36999999 37.85999998-39.62999999 9.17-.47000001 18.43-.33000001 27.22 2.34 12.92 3.92 19.89 14.15999999 20.07 28.72999999.2 16 0 32 0 48.32h-34.3c-1.14-1.45-.59-3.18-.59-4.77-.0533333-12.5-.0533333-25 0-37.5 0-4.21-1.39-7.22-5.93-7.7-4.75-.51-7.19 2-7.45 6.56-.69 11.79-1.4 23.64.6 35.34 1.12 6.55 5.83 11.35 10.21 16.1 8.47 9.17 17.64 17.6700001 25.86 27.1000001 9.25 10.62 13.52 22.95 13.62 36.85.09 12.67.11 25.33 0 38-.0534508 6.464924-1.3080924 12.863596-3.7 18.87-4.92 12.34-14.32 19.12-27.07 21.48-11.3254046 2.091104-22.9677715 1.726214-34.14-1.07-13.24999998-3.27-22.70999998-15.25-22.99999998-29.69-.42-19.77-.11-39.6-.11-59.82z"/><path d="m1326.28017 2.35950191h34.73l-23.39 226.50000009h-47.37l-24.94-226.42000009h38.47l10.67 162.00000009h1z"/><path d="m575.040174 2.27950191h45.22l24 226.44000009h-35.3c-1.49-13.5-1.27-27.29-3.25-41.19h-18.24l-3.22 41.39h-31.41zm28.68 152.00000009-6.24-88.8400001h-1.54l-6.43 88.7900001z"/><path d="m149.600174 228.849502-2.72-41.2h-18.77l-3.19 41.17h-31.3500002l22.1900002-226.49000009h45.23l24 226.52000009zm-5.15-74.57-6.25-89.0800001h-1.53l-6.44 89.05:00001z"/><path d="m1366.85017 228.789502v-226.26000009h69.34v33.58999999h-33.73v56.87h27.32v35.0000001h-27.32v66.13h35v34.68z"/><path d="m721.110174 2.28950191c-6.94 36.45999999-13.68 72.53999999-20.74 108.57000009-3.39 17.32-5.61 34.63-5.12 52.37.57 20.31.13 40.65.14 61v4.63h-35.8c-1.13-1.52-.5-3.41-.5-5.15 0-23.66-.34-47.33.1-71 .23-12.1-1.7-23.75-4.13-35.47-5.44-26.2000001-10.7-52.4300001-16-78.6600001-2.43-12-4.81-23.94-7.27-36.19999999h35.67l9.7 79.30999999 1.43.17c4.22-26.38 6.57-53 10.18-79.56999999z"/><path d="m1073.67017 270.829502h-22v-33.78h80.15v33.78h-21.52v192h-36.67z"/><path d="m234.420174 35.8895019v192.9200001h-35.62v-192.6000001h-21.85v-33.83999999h79.26v33.51999999z"/><path d="m1182.05017 193.589502h31.06v35.23h-66.87v-226.41000009h35.81z"/><path d="m1222.60017 2.29950191h36.1v226.55000009h-36.1z"/><path d="m845.530174 462.929502c-1.09.08-1.91.2-2.72.2h-33.35v-226.01h36.07z"/></g></svg>

<?xml version="1.0" encoding="UTF-8"?>
<svg width="1438px" height="468px" viewBox="0 0 1438 468" version="1.1" xmlns="http://www.w3.org/2000/svg" xmlns:xlink="http://www.w3.org/1999/xlink">
    <title>snl_logo</title>
    <g id="Page-1" stroke="none" stroke-width="1" fill="none" fill-rule="evenodd">
        <g id="snl_logo" transform="translate(0.009826, 0.950498)" fill="#FFFFFF" fill-rule="nonzero">
            <path d="M991.560174,324.959502 L1005.91017,324.959502 L1005.91017,237.119502 L1042.33017,237.119502 L1042.33017,463.119502 L1006.21017,463.119502 L1006.21017,365.599502 C1001.36017,364.529502 996.990174,365.019502 991.930174,365.219502 L991.930174,462.889502 L954.610174,462.889502 L954.610174,237.009502 L991.610174,237.009502 L991.560174,324.959502 Z" id="Path"></path>
            <polygon id="Path" points="742.830174 333.909502 742.830174 462.909502 711.400174 462.909502 711.400174 237.119502 746.660174 237.119502 766.270174 355.789502 767.030174 355.789502 767.030174 237.189502 798.830174 237.189502 798.830174 462.849502 766.380174 462.849502 743.970174 333.849502"></polygon>
            <path d="M265.110174,2.28950191 L301.590174,2.28950191 C302.740174,3.98950191 302.160174,5.86950191 302.160174,7.61950191 C302.200174,66.4461686 302.200174,125.276169 302.160174,184.109502 C302.160174,187.109502 302.220174,190.109502 303.380174,192.939502 C304.312904,195.75777 307.147181,197.487949 310.080174,197.029502 C313.460174,196.659502 315.610174,194.669502 316.080174,191.369502 C316.365818,188.378573 316.459343,185.372403 316.360174,182.369502 C316.360174,123.702835 316.360174,65.0361686 316.360174,6.36950191 L316.360174,2.36950191 L353.550174,2.36950191 C354.610174,3.48950191 354.100174,4.88950191 354.100174,6.14950191 C354.100174,66.9795019 354.280174,127.809502 354.010174,188.639502 C353.940174,203.409502 349.810174,216.919502 336.270174,225.479502 C330.688678,229.154931 324.153127,231.115596 317.470174,231.119502 C308.720174,231.029502 299.960174,232.119502 291.240174,229.559502 C276.420174,225.289502 268.880174,215.089502 266.150174,200.559502 C265.299712,195.468775 264.928088,190.309562 265.040174,185.149502 C265.093507,126.156169 265.093507,67.1561686 265.040174,8.14950191 L265.110174,2.28950191 Z" id="Path"></path>
            <path d="M461.270174,228.999502 L461.270174,2.20950191 C480.580174,2.20950191 499.690174,2.02950191 518.800174,2.34950191 C523.11544,2.50695672 527.355477,3.5270137 531.270174,5.34950191 C540.640174,9.53950191 545.090174,17.2895019 547.060174,26.8195019 C547.951247,31.898434 548.31651,37.0556785 548.150174,42.2095019 C548.09684,92.3428352 548.09684,142.476169 548.150174,192.609502 C548.219065,199.06644 546.98443,205.470898 544.520174,211.439502 C539.650174,222.979502 530.120174,228.439502 518.310174,228.839502 C499.360174,229.469502 480.410174,228.999502 461.270174,228.999502 Z M497.110174,196.849502 C508.980174,197.439502 511.110174,195.459502 511.110174,184.229502 C511.110174,171.742835 511.110174,159.252835 511.110174,146.759502 C511.110174,112.092835 511.110174,77.4561686 511.110174,42.8495019 C511.110174,38.6195019 510.510174,34.5595019 505.780174,33.3595019 C502.918502,32.6771084 499.931912,32.7183501 497.090174,33.4795019 L497.110174,196.849502 Z" id="Shape"></path>
            <path d="M943.980174,316.589502 L907.720174,316.589502 C907.720174,309.639502 907.720174,303.049502 907.720174,296.449502 C907.720174,290.449502 907.720174,284.449502 907.720174,278.449502 C907.884207,275.943804 907.427369,273.436346 906.390174,271.149502 C904.930174,268.389502 902.580174,266.769502 899.520174,267.239502 C896.460174,267.709502 894.780174,270.109502 894.260174,273.099502 C894.090798,274.58986 894.047311,276.091841 894.130174,277.589502 C894.130174,325.589502 894.130174,373.569502 894.130174,421.529502 C894.130174,422.529502 894.130174,423.529502 894.130174,424.529502 C894.480174,429.249502 898.270174,433.299502 902.180174,433.159502 C905.810174,433.039502 909.960174,428.949502 909.990174,424.749502 C910.110174,403.279502 910.050174,381.809502 910.050174,359.999502 L900.660174,359.399502 L900.660174,327.639502 L945.460174,327.639502 L945.460174,462.869502 L922.190174,462.869502 C919.090174,459.099502 920.780174,453.259502 917.240174,449.409502 C915.390174,449.329502 914.750174,450.799502 913.870174,451.969502 C904.620174,464.369502 893.210174,468.629502 879.070174,464.969502 C868.020174,462.099502 858.940174,450.349502 857.070174,436.749502 C856.40069,431.64077 856.086602,426.49173 856.130174,421.339502 C856.163507,373.339502 856.163507,325.359502 856.130174,277.399502 C856.041883,270.416885 857.266464,263.479854 859.740174,256.949502 C864.850174,243.879502 874.930174,237.179502 888.340174,235.239502 C897.610174,233.899502 906.980174,234.569502 916.270174,235.319502 C926.630174,236.159502 938.130174,247.029502 941.660174,258.189502 C943.357211,263.742796 944.140752,269.534916 943.980174,275.339502 C943.830174,287.339502 943.980174,299.339502 943.980174,311.339502 C943.980174,312.939502 943.980174,314.569502 943.980174,316.589502 Z" id="Path"></path>
            <path d="M400.390174,128.769502 L400.390174,228.769502 L364.290174,228.769502 L364.290174,2.76950191 C365.210174,1.63950191 366.650174,2.21950191 367.890174,2.21950191 C386.050174,2.17950191 404.210174,2.17950191 422.370174,2.21950191 C439.370174,2.21950191 449.880174,12.2895019 450.110174,29.1495019 C450.360174,47.1495019 450.280174,65.1495019 450.110174,83.1495019 C450.020174,93.9995019 446.110174,100.639502 436.800174,106.709502 C437.230174,107.179502 437.550174,107.759502 438.050174,108.029502 C447.050174,112.919502 450.590174,120.659502 450.540174,130.649502 C450.410174,155.969502 450.490174,181.299502 450.540174,206.649502 C450.540174,214.089502 450.010174,221.589502 453.460174,228.949502 L417.110174,228.949502 C414.190174,224.949502 414.260174,219.869502 414.240174,215.009502 C414.130174,190.009502 414.240174,165.009502 414.180174,140.009502 C414.170174,129.229502 411.910174,127.319502 400.390174,128.769502 Z M400.600174,96.0895019 C409.600174,97.8195019 413.950174,95.6395019 414.030174,89.0195019 C414.240174,72.0695019 414.120174,55.1295019 414.090174,38.1795019 C414.090174,34.2595019 412.090174,31.9895019 408.090174,31.6795019 C405.650174,31.4895019 403.170174,30.9695019 400.590174,32.1295019 L400.600174,96.0895019 Z" id="Shape"></path>
            <path d="M0.110173817,139.349502 L35.2201738,139.349502 C35.2201738,154.479502 35.2201738,169.419502 35.2201738,184.349502 C35.2201738,186.349502 35.1301738,188.349502 35.2801738,190.349502 C35.8001738,197.279502 38.1601738,199.349502 45.0601738,198.999502 C48.9801738,197.389502 49.7001738,193.809502 49.7501738,190.329502 C49.9035071,178.002835 49.8735071,165.669502 49.6601738,153.329502 C49.5501738,146.919502 46.6601738,141.499502 42.3601738,136.869502 C33.6701738,127.459502 24.7401738,118.279502 16.1701738,108.769502 C5.99223756,97.8102691 0.529531703,83.2897433 0.960173817,68.3395019 C1.12017382,58.8395019 1.20017382,49.3395019 0.960173817,39.8395019 C0.250173817,13.3395019 14.4101738,1.46950191 38.8201738,0.209501905 C47.9901738,-0.260498095 57.2501738,-0.120498095 66.0401738,2.54950191 C78.9601738,6.46950191 85.9301738,16.7095019 86.1101738,31.2795019 C86.3101738,47.2795019 86.1101738,63.2795019 86.1101738,79.5995019 L51.8101738,79.5995019 C50.6701738,78.1495019 51.2201738,76.4195019 51.2201738,74.8295019 C51.1668405,62.3295019 51.1668405,49.8295019 51.2201738,37.3295019 C51.2201738,33.1195019 49.8301738,30.1095019 45.2901738,29.6295019 C40.5401738,29.1195019 38.1001738,31.6295019 37.8401738,36.1895019 C37.1501738,47.9795019 36.4401738,59.8295019 38.4401738,71.5295019 C39.5601738,78.0795019 44.2701738,82.8795019 48.6501738,87.6295019 C57.1201738,96.7995019 66.2901738,105.299502 74.5101738,114.729502 C83.7601738,125.349502 88.0301738,137.679502 88.1301738,151.579502 C88.2201738,164.249502 88.2401738,176.909502 88.1301738,189.579502 C88.076723,196.044426 86.8220814,202.443098 84.4301738,208.449502 C79.5101738,220.789502 70.1101738,227.569502 57.3601738,229.929502 C46.0347692,232.020606 34.3924023,231.655716 23.2201738,228.859502 C9.97017382,225.589502 0.510173817,213.609502 0.220173817,199.169502 C-0.199826183,179.399502 0.110173817,159.569502 0.110173817,139.349502 Z" id="Path"></path>
            <polygon id="Path" points="1326.28017 2.35950191 1361.01017 2.35950191 1337.62017 228.859502 1290.25017 228.859502 1265.31017 2.43950191 1303.78017 2.43950191 1314.45017 164.439502 1315.45017 164.439502"></polygon>
            <path d="M575.040174,2.27950191 L620.260174,2.27950191 L644.260174,228.719502 L608.960174,228.719502 C607.470174,215.219502 607.690174,201.429502 605.710174,187.529502 L587.470174,187.529502 L584.250174,228.919502 L552.840174,228.919502 L575.040174,2.27950191 Z M603.720174,154.279502 L597.480174,65.4395019 L595.940174,65.4395019 L589.510174,154.229502 L603.720174,154.279502 Z" id="Shape"></path>
            <path d="M149.600174,228.849502 L146.880174,187.649502 L128.110174,187.649502 L124.920174,228.819502 L93.5701738,228.819502 L115.760174,2.32950191 L160.990174,2.32950191 L184.990174,228.849502 L149.600174,228.849502 Z M144.450174,154.279502 L138.200174,65.1995019 L136.670174,65.1995019 L130.230174,154.249502 L144.450174,154.279502 Z" id="Shape"></path>
            <polygon id="Path" points="1366.85017 228.789502 1366.85017 2.52950191 1436.19017 2.52950191 1436.19017 36.1195019 1402.46017 36.1195019 1402.46017 92.9895019 1429.78017 92.9895019 1429.78017 127.989502 1402.46017 127.989502 1402.46017 194.119502 1437.46017 194.119502 1437.46017 228.799502"></polygon>
            <path d="M721.110174,2.28950191 C714.170174,38.7495019 707.430174,74.8295019 700.370174,110.859502 C696.980174,128.179502 694.760174,145.489502 695.250174,163.229502 C695.820174,183.539502 695.380174,203.879502 695.390174,224.229502 C695.390174,225.699502 695.390174,227.159502 695.390174,228.859502 L659.590174,228.859502 C658.460174,227.339502 659.090174,225.449502 659.090174,223.709502 C659.090174,200.049502 658.750174,176.379502 659.190174,152.709502 C659.420174,140.609502 657.490174,128.959502 655.060174,117.239502 C649.620174,91.0395019 644.360174,64.8095019 639.060174,38.5795019 C636.630174,26.5795019 634.250174,14.6395019 631.790174,2.37950191 L667.460174,2.37950191 L677.160174,81.6895019 L678.590174,81.8595019 C682.810174,55.4795019 685.160174,28.8595019 688.770174,2.28950191 L721.110174,2.28950191 Z" id="Path"></path>
            <polygon id="Path" points="1073.67017 270.829502 1051.67017 270.829502 1051.67017 237.049502 1131.82017 237.049502 1131.82017 270.829502 1110.30017 270.829502 1110.30017 462.829502 1073.63017 462.829502"></polygon>
            <polygon id="Path" points="234.420174 35.8895019 234.420174 228.809502 198.800174 228.809502 198.800174 36.2095019 176.950174 36.2095019 176.950174 2.36950191 256.210174 2.36950191 256.210174 35.8895019"></polygon>
            <polygon id="Path" points="1182.05017 193.589502 1213.11017 193.589502 1213.11017 228.819502 1146.24017 228.819502 1146.24017 2.40950191 1182.05017 2.40950191"></polygon>
            <polygon id="Path" points="1222.60017 2.29950191 1258.70017 2.29950191 1258.70017 228.849502 1222.60017 228.849502"></polygon>
            <path d="M845.530174,462.929502 C844.440174,463.009502 843.620174,463.129502 842.810174,463.129502 L809.460174,463.129502 L809.460174,237.119502 L845.530174,237.119502 L845.530174,462.929502 Z" id="Path"></path>
        </g>
    </g>
</svg>
